!!!SOCIAL_FUNCTION:	klokali songs
!!!PDT:	1939
!!!OTL: No_39_Klokali_Song_(a).krn
!!!LANG: Non-Tone
!!!LING_GROUP: Wakashan
!!!REG: Pacific Northwest
**kern
*staff1
=1-
*clefF4
*k[b-e-a-d-g-]
*M2/4
4r
8r
16r
16A-\
=2
4A-\
8F\
16r
16A-\
=3
8A-\
8r
8A-\L
8B-\J
=4
[2A-\
=5
4A-\]
4r
=6
16B-\LK
8.A-\J
8A-\L
8A-\J
=7
4A-\
8G-\L
8G-\J
=8
4G-\
8r
8B-\
=9
4A-\
16F\
16r
8A-\
=10
8A-\
8r
4A-\
=11
4A-\
8A-\L
8A-\J
=12
4A-\
8G-\L
8G-\J
=13
8G-\
8r
4A-\
=14
4A-\
16F\
16r
8B-\
=15
16B-\LK
8.A-\J
[4A-\
=16
4A-\]
4r
=17
16B-\LK
8.A-\J
8G-\L
8A-\J
=18
8G-\L
8G-\J
8G-\
8r
=19
4A-\
16G-\
16r
8A-\
=20
8A-\
8r
8G-\L
8A-\J
=21
4A-\
8G-\L
8A-\J
=22||
*M3/8
8A-\L
8A-\
8A-\J
=23||
*M5/8
8G-\L
8G-\
8G-\J
4r
=24||
*M2/4
4A-\
8G-\L
8A-\J
=25
8A-\
8r
8G-\L
8A-\J
=26
[2A-\
=27
4A-\]
4r
==
*-
